azure-patterns/svg-dot-net-core.svg

<svg xmlns="http://www.w3.org/2000/svg" viewBox="0 0 53.127 53.127"><path d="M36.433 32.056l.994-2.355-.288-.249-2.171-1.886.011-1.907 2.448-2.189-.963-2.37-.377.026-2.871.205-1.34-1.359.182-3.281L29.7 15.7l-.249.286-1.883 2.174-1.908-.014-2.191-2.446-2.367.961.027.38.2 2.871-1.357 1.338-3.281-.182-.991 2.355.288.249 2.172 1.888-.012 1.908-2.448 2.19.961 2.367.38-.028 2.869-.2 1.34 1.358-.182 3.278 2.355.994.249-.288 1.886-2.173 1.908.014 2.19 2.448 2.367-.962-.023-.382-.2-2.87 1.359-1.34zm-11.9-.674a5.231 5.231 0 1 1 6.85-2.782 5.228 5.228 0 0 1-6.853 2.785" fill="#009ee1"/><path d="M26.563 51.429a24.865 24.865 0 1 1 24.866-24.866 24.893 24.893 0 0 1-24.866 24.866zm0-43.73a18.865 18.865 0 1 0 18.866 18.864A18.887 18.887 0 0 0 26.563 7.7z" fill="#009ee1"/><path d="M26.563 51.429a24.865 24.865 0 1 1 24.866-24.866 24.893 24.893 0 0 1-24.866 24.866zm0-43.73a18.865 18.865 0 1 0 18.866 18.864A18.887 18.887 0 0 0 26.563 7.7z" fill="#009ee1"/><path d="M26.563 51.429a24.865 24.865 0 1 1 24.866-24.866 24.893 24.893 0 0 1-24.866 24.866zm0-43.73a18.865 18.865 0 1 0 18.866 18.864A18.887 18.887 0 0 0 26.563 7.7z" fill="#009ee1"/><path d="M26.563 52.627a26.063 26.063 0 1 1 26.064-26.064 26.093 26.093 0 0 1-26.064 26.064zm0-51.127a25.063 25.063 0 1 0 25.064 25.063A25.092 25.092 0 0 0 26.563 1.5z" fill="#0078db"/><path d="M26.563 52.627a26.063 26.063 0 1 1 26.064-26.064 26.093 26.093 0 0 1-26.064 26.064zm0-51.127a25.063 25.063 0 1 0 25.064 25.063A25.092 25.092 0 0 0 26.563 1.5z" fill="#0078db"/><path d="M26.563 53.127a26.563 26.563 0 1 1 26.564-26.564 26.593 26.593 0 0 1-26.564 26.564zm0-51.127a24.563 24.563 0 1 0 24.564 24.563A24.592 24.592 0 0 0 26.563 2z" fill="#0078db"/></svg>

<svg xmlns="http://www.w3.org/2000/svg" viewBox="0 0 53.127 53.127">
                                
                            
  <path d="M36.433,32.056l.994-2.355-.288-.249-2.171-1.886.011-1.907,2.448-2.189L36.464,21.1l-.377.026-2.871.205-1.34-1.359.182-3.281L29.7,15.7l-.249.286L27.568,18.16l-1.908-.014L23.469,15.7l-2.367.961.027.38.2,2.871-1.357,1.338-3.281-.182L15.7,23.423l.288.249L18.16,25.56l-.012,1.908L15.7,29.658l.961,2.367.38-.028,2.869-.2,1.34,1.358-.182,3.278,2.355.994.249-.288,1.886-2.173,1.908.014,2.19,2.448,2.367-.962L32,36.084l-.2-2.87,1.359-1.34Zm-11.9-.674A5.231,5.231,0,1,1,31.383,28.6a5.228,5.228,0,0,1-6.853,2.785" fill="#009ee1"></path>
  <path d="M26.563,51.429A24.865,24.865,0,1,1,51.429,26.563,24.893,24.893,0,0,1,26.563,51.429Zm0-43.73A18.865,18.865,0,1,0,45.429,26.563,18.887,18.887,0,0,0,26.563,7.7Z" fill="#009ee1"></path>
  <path d="M26.563,51.429A24.865,24.865,0,1,1,51.429,26.563,24.893,24.893,0,0,1,26.563,51.429Zm0-43.73A18.865,18.865,0,1,0,45.429,26.563,18.887,18.887,0,0,0,26.563,7.7Z" fill="#009ee1"></path>
  <path d="M26.563,51.429A24.865,24.865,0,1,1,51.429,26.563,24.893,24.893,0,0,1,26.563,51.429Zm0-43.73A18.865,18.865,0,1,0,45.429,26.563,18.887,18.887,0,0,0,26.563,7.7Z" fill="#009ee1"></path>
  <path d="M26.563,52.627A26.063,26.063,0,1,1,52.627,26.563,26.093,26.093,0,0,1,26.563,52.627Zm0-51.127A25.063,25.063,0,1,0,51.627,26.563,25.092,25.092,0,0,0,26.563,1.5Z" fill="#0078db"></path>
  <path d="M26.563,52.627A26.063,26.063,0,1,1,52.627,26.563,26.093,26.093,0,0,1,26.563,52.627Zm0-51.127A25.063,25.063,0,1,0,51.627,26.563,25.092,25.092,0,0,0,26.563,1.5Z" fill="#0078db"></path>
  <path d="M26.563,53.127A26.563,26.563,0,1,1,53.127,26.563,26.593,26.593,0,0,1,26.563,53.127ZM26.563,2A24.563,24.563,0,1,0,51.127,26.563,24.592,24.592,0,0,0,26.563,2Z" fill="#0078db"></path>
</svg>
